img/like.svg

<svg width="40" height="40" viewBox="0 0 40 40" fill="none" xmlns="http://www.w3.org/2000/svg">
<mask id="mask0_248_2" style="mask-type:alpha" maskUnits="userSpaceOnUse" x="0" y="0" width="40" height="40">
<rect width="40" height="40" fill="#D9D9D9"/>
</mask>
<g mask="url(#mask0_248_2)">
<path d="M30 35H11.6667V13.3333L23.3333 1.66663L25.4167 3.74996C25.6111 3.9444 25.7711 4.20829 25.8967 4.54163C26.0211 4.87496 26.0833 5.1944 26.0833 5.49996V6.08329L24.25 13.3333H35C35.8889 13.3333 36.6667 13.6666 37.3333 14.3333C38 15 38.3333 15.7777 38.3333 16.6666V20C38.3333 20.1944 38.3055 20.4027 38.25 20.625C38.1944 20.8472 38.1389 21.0555 38.0833 21.25L33.0833 33C32.8333 33.5555 32.4167 34.0277 31.8333 34.4166C31.25 34.8055 30.6389 35 30 35ZM15 31.6666H30L35 20V16.6666H20L22.25 7.49996L15 14.75V31.6666ZM11.6667 13.3333V16.6666H6.66666V31.6666H11.6667V35H3.33333V13.3333H11.6667Z" fill="#1C1B1F"/>
</g>
</svg>

<svg width="40" height="40" fill="none" xmlns="http://www.w3.org/2000/svg"><mask id="a" style="mask-type:alpha" maskUnits="userSpaceOnUse" x="0" y="0" width="40" height="40"><path fill="#D9D9D9" d="M0 0h40v40H0z"/></mask><g mask="url(#a)"><path d="M30 35H11.667V13.333L23.333 1.667l2.084 2.083c.194.194.354.458.48.792.124.333.186.652.186.958v.583l-1.833 7.25H35c.889 0 1.667.334 2.333 1 .667.667 1 1.445 1 2.334V20c0 .194-.027.403-.083.625-.056.222-.111.43-.167.625l-5 11.75c-.25.556-.666 1.028-1.25 1.417C31.25 34.806 30.64 35 30 35zm-15-3.333h15L35 20v-3.333H20L22.25 7.5 15 14.75v16.917zm-3.333-18.334v3.334h-5v15h5V35H3.333V13.333h8.334z" fill="#1C1B1F"/></g></svg>
